X:651
T:Polska # 651
S:efter Anders Gustaf Andersson
B:Sörmlands musikarkiv - Olof Anderssons uppteckningar 1936, nr 651
W: Text: skinnbyxor med luckor; innanför sitter ku ku
O:Mörkö, Södermanland
R:Hamburska
M:3/4
L:1/16
Q:120
K:D
A2| f4 f3e f2g2 | f3a a8| baga b2a2 g2f2 |g4 e8| e4e2d2 e3f|
f3g [g8B] | g2fg a2g2 f2e2| f4d8:| c2e2 A8 | a4A6d2| c2e2 A8|
a4 A8 | d2f2 a2f2 g2e2 | f4d8 :| e3f e3d e3f | g4b4a4 | g3a g3f e3f |
d4B8 | g4 g3f f3e | e3d d2c2 c4 | c3d c3B c3d | e4A8 :|

